styles/1/Numix/256/places/grey-folder-books.svg

<?xml version="1.0" encoding="UTF-8" standalone="no"?>
<svg
   xmlns:dc="http://purl.org/dc/elements/1.1/"
   xmlns:cc="http://creativecommons.org/ns#"
   xmlns:rdf="http://www.w3.org/1999/02/22-rdf-syntax-ns#"
   xmlns:svg="http://www.w3.org/2000/svg"
   xmlns="http://www.w3.org/2000/svg"
   xmlns:sodipodi="http://sodipodi.sourceforge.net/DTD/sodipodi-0.dtd"
   xmlns:inkscape="http://www.inkscape.org/namespaces/inkscape"
   width="256px"
   height="256px"
   viewBox="0 0 256 256"
   version="1.1"
   id="svg2"
   inkscape:version="0.91 r"
   sodipodi:docname="grey-folder-books.svg">
  <metadata
     id="metadata11">
    <rdf:RDF>
      <cc:Work
         rdf:about="">
        <dc:format>image/svg+xml</dc:format>
        <dc:type
           rdf:resource="http://purl.org/dc/dcmitype/StillImage" />
      </cc:Work>
    </rdf:RDF>
  </metadata>
  <defs
     id="defs9" />
  <sodipodi:namedview
     pagecolor="#ffffff"
     bordercolor="#666666"
     borderopacity="1"
     objecttolerance="10"
     gridtolerance="10"
     guidetolerance="10"
     inkscape:pageopacity="0"
     inkscape:pageshadow="2"
     inkscape:window-width="1366"
     inkscape:window-height="747"
     id="namedview7"
     showgrid="true"
     inkscape:zoom="0.921875"
     inkscape:cx="98.844179"
     inkscape:cy="134.55269"
     inkscape:window-x="0"
     inkscape:window-y="21"
     inkscape:window-maximized="1"
     inkscape:current-layer="svg2">
    <inkscape:grid
       type="xygrid"
       id="grid4850" />
  </sodipodi:namedview>
  <path
     style="fill:#bdbdbd;fill-opacity:1;fill-rule:nonzero;stroke:none"
     d="M 24.25 40.003906 C 19.734375 40.445312 15.925781 44.714844 16 49.253906 L 16 206.75 C 15.94531 211.60937 20.394531 216.05469 25.25 216 L 230.75 216 C 235.60937 216.0547 240.05469 211.60937 240 206.75 L 240 65.253906 C 240.0547 60.394531 235.60937 55.945312 230.75 56.003906 L 152 56.003906 L 152 49.253906 C 152.0547 44.476562 147.77344 40.078125 143 40.003906 L 25.25 40.003906 C 24.917969 39.984376 24.585938 39.984376 24.25 40.003906 z M 86 88 C 104 87.999997 116 93.999993 128 104 C 140 93.999993 152 87.999997 170 88 L 136 112 L 120 112 L 86 88 z M 80 92.001953 L 112 115.99805 L 112 180 L 80 156.00391 L 80 92.001953 z M 176 92.001953 L 176 156.00391 L 144 180.00195 L 144 115.99609 L 176 92.001953 z M 120 120 L 136 120 L 136 184 L 120 184 L 120 120 z "
     id="path5" />
</svg>

<svg xmlns="http://www.w3.org/2000/svg" viewBox="0 0 256 256">
 <path d="m 24.25 40 c -4.516 0.441 -8.324 4.711 -8.25 9.25 l 0 157.5 c -0.055 4.859 4.395 9.305 9.25 9.25 l 205.5 0 c 4.859 0.055 9.305 -4.391 9.25 -9.25 l 0 -141.5 c 0.055 -4.859 -4.391 -9.309 -9.25 -9.25 l -78.75 0 l 0 -6.75 c 0.055 -4.777 -4.227 -9.176 -9 -9.25 l -117.75 0 c -0.332 -0.02 -0.664 -0.02 -1 0 z m 61.75 47.996 c 18 0 30 6 42 16 c 12 -10 24 -16 42 -16 l -34 24 l -16 0 l -34 -24 z m -6 4 l 32 23.996 l 0 64 l -32 -23.996 l 0 -64 z m 96 0 l 0 64 l -32 23.998 l 0 -64.01 l 32 -23.994 z m -56 27.998 l 16 0 l 0 64 l -16 0 l 0 -64 z" style="fill:#bdbdbd;fill-opacity:1;stroke:none;fill-rule:nonzero"/>
</svg>
